X:1
T:Mrs. Forbes of Newe's
T:Mrs. Forbes of Newe's
T:Alexander Walker
C:Alexander Walker
L:1/8
M:2/2
K:A
V:1 treble 
V:1
 d | c>A A/A/A A2 EF | GABc defa | c>A A/A/A A2 EC | DCB,A, G,B,B, :| f | eAcA aAcA | defg agfe | %8
 dbdB cacA | dBcA GBBd | eAcA FAEc | defg a2 ae | faef cBBG | FAED CA,A, || %14

